src/assets/icons/media-reading-writing,simple,news.svg

<svg width="48" height="48" viewBox="0 0 48 48" fill="none" xmlns="http://www.w3.org/2000/svg">
<rect opacity="0.2" x="5" y="5" width="38" height="38" rx="4" fill="black"/>
<path opacity="0.6" d="M9 23C9 21.8954 9.89543 21 11 21H17V35C17 37.2091 15.2091 39 13 39C10.7909 39 9 37.2091 9 35V23Z" fill="black"/>
<path fill-rule="evenodd" clip-rule="evenodd" d="M13 39H17V35C17 37.2091 15.2091 39 13 39Z" fill="black"/>
<g opacity="0.2">
<path d="M21 14C21 13.4477 21.485 13 22.0833 13H32.9167C33.515 13 34 13.4477 34 14C34 14.5523 33.515 15 32.9167 15H22.0833C21.485 15 21 14.5523 21 14Z" fill="black"/>
<path d="M21 20C21 19.4477 21.485 19 22.0833 19H32.9167C33.515 19 34 19.4477 34 20C34 20.5523 33.515 21 32.9167 21H22.0833C21.485 21 21 20.5523 21 20Z" fill="black"/>
<path d="M21 26C21 25.4477 21.485 25 22.0833 25H32.9167C33.515 25 34 25.4477 34 26C34 26.5523 33.515 27 32.9167 27H22.0833C21.485 27 21 26.5523 21 26Z" fill="black"/>
<path d="M21 32C21 31.4477 21.485 31 22.0833 31H29.6667C30.265 31 30.75 31.4477 30.75 32C30.75 32.5523 30.265 33 29.6667 33H22.0833C21.485 33 21 32.5523 21 32Z" fill="black"/>
</g>
<path fill-rule="evenodd" clip-rule="evenodd" d="M19 9C17.8954 9 17 9.89543 17 11V39H34C36.2091 39 38 37.2091 38 35V11C38 9.89543 37.1046 9 36 9H19ZM22.0833 13C21.485 13 21 13.4477 21 14C21 14.5523 21.485 15 22.0833 15H32.9167C33.515 15 34 14.5523 34 14C34 13.4477 33.515 13 32.9167 13H22.0833ZM22.0833 19C21.485 19 21 19.4477 21 20C21 20.5523 21.485 21 22.0833 21H32.9167C33.515 21 34 20.5523 34 20C34 19.4477 33.515 19 32.9167 19H22.0833ZM21 26C21 25.4477 21.485 25 22.0833 25H32.9167C33.515 25 34 25.4477 34 26C34 26.5523 33.515 27 32.9167 27H22.0833C21.485 27 21 26.5523 21 26ZM22.0833 31C21.485 31 21 31.4477 21 32C21 32.5523 21.485 33 22.0833 33H29.6667C30.265 33 30.75 32.5523 30.75 32C30.75 31.4477 30.265 31 29.6667 31H22.0833Z" fill="black"/>
</svg>

<svg xmlns="http://www.w3.org/2000/svg" width="48" height="48" fill="none" viewBox="0 0 48 48">
  <rect width="38" height="38" x="5" y="5" fill="#000" opacity=".2" rx="4"/>
  <path fill="#000" d="M9 23a2 2 0 012-2h6v14a4 4 0 01-8 0V23z" opacity=".6"/>
  <path fill="#000" fill-rule="evenodd" d="M13 39h4v-4a4 4 0 01-4 4z" clip-rule="evenodd"/>
  <g opacity=".2">
    <path fill="#000" d="M21 14c0-.552.485-1 1.083-1h10.834c.598 0 1.083.448 1.083 1s-.485 1-1.083 1H22.083C21.485 15 21 14.552 21 14zM21 20c0-.552.485-1 1.083-1h10.834c.598 0 1.083.448 1.083 1s-.485 1-1.083 1H22.083C21.485 21 21 20.552 21 20zM21 26c0-.552.485-1 1.083-1h10.834c.598 0 1.083.448 1.083 1s-.485 1-1.083 1H22.083C21.485 27 21 26.552 21 26zM21 32c0-.552.485-1 1.083-1h7.584c.598 0 1.083.448 1.083 1s-.485 1-1.083 1h-7.584C21.485 33 21 32.552 21 32z"/>
  </g>
  <path fill="#000" fill-rule="evenodd" d="M19 9a2 2 0 00-2 2v28h17a4 4 0 004-4V11a2 2 0 00-2-2H19zm3.083 4c-.598 0-1.083.448-1.083 1s.485 1 1.083 1h10.834c.598 0 1.083-.448 1.083-1s-.485-1-1.083-1H22.083zm0 6c-.598 0-1.083.448-1.083 1s.485 1 1.083 1h10.834c.598 0 1.083-.448 1.083-1s-.485-1-1.083-1H22.083zM21 26c0-.552.485-1 1.083-1h10.834c.598 0 1.083.448 1.083 1s-.485 1-1.083 1H22.083C21.485 27 21 26.552 21 26zm1.083 5c-.598 0-1.083.448-1.083 1s.485 1 1.083 1h7.584c.598 0 1.083-.448 1.083-1s-.485-1-1.083-1h-7.584z" clip-rule="evenodd"/>
</svg>
